euroheater.ru/images/icons/icon-menu.svg

<svg width="11" height="30" viewBox="0 0 11 30" fill="none" xmlns="http://www.w3.org/2000/svg">
<path fill-rule="evenodd" clip-rule="evenodd" d="M5.64169 0C8.3001 0 10.4557 2.05637 10.4557 4.59235C10.4557 7.12834 8.3001 9.18471 5.64169 9.18471C2.98328 9.18471 0.827637 7.12834 0.827637 4.59235C0.827637 2.05637 2.98328 0 5.64169 0ZM5.64169 2.5166C6.84362 2.5166 7.81765 3.44579 7.81765 4.59235C7.81765 5.73893 6.84361 6.66811 5.64169 6.66811C4.43977 6.66811 3.46573 5.73892 3.46573 4.59235C3.46573 3.44578 4.43977 2.5166 5.64169 2.5166Z" fill="#F7F4F3"/>
<path fill-rule="evenodd" clip-rule="evenodd" d="M5.64169 10.4076C8.3001 10.4076 10.4557 12.464 10.4557 15C10.4557 17.536 8.3001 19.5923 5.64169 19.5923C2.98328 19.5923 0.827637 17.536 0.827637 15C0.827637 12.464 2.98328 10.4076 5.64169 10.4076ZM5.64169 12.9242C6.84362 12.9242 7.81765 13.8534 7.81765 15C7.81765 16.1466 6.84361 17.0757 5.64169 17.0757C4.43977 17.0757 3.46573 16.1466 3.46573 15C3.46573 13.8534 4.43977 12.9242 5.64169 12.9242Z" fill="#F7F4F3"/>
<path fill-rule="evenodd" clip-rule="evenodd" d="M5.64169 20.8153C8.3001 20.8153 10.4557 22.8716 10.4557 25.4076C10.4557 27.9436 8.3001 30 5.64169 30C2.98328 30 0.827637 27.9436 0.827637 25.4076C0.827637 22.8716 2.98328 20.8153 5.64169 20.8153ZM5.64169 23.3319C6.84362 23.3319 7.81765 24.2611 7.81765 25.4076C7.81765 26.5542 6.84361 27.4834 5.64169 27.4834C4.43977 27.4834 3.46573 26.5542 3.46573 25.4076C3.46573 24.2611 4.43977 23.3319 5.64169 23.3319Z" fill="#F7F4F3"/>
</svg>

<svg width="11" height="30" fill="none" xmlns="http://www.w3.org/2000/svg"><path fill-rule="evenodd" clip-rule="evenodd" d="M5.642 0c2.658 0 4.814 2.056 4.814 4.592 0 2.536-2.156 4.593-4.814 4.593-2.659 0-4.814-2.057-4.814-4.593S2.983 0 5.642 0zm0 2.517c1.202 0 2.176.929 2.176 2.075 0 1.147-.974 2.076-2.176 2.076-1.202 0-2.176-.93-2.176-2.076s.974-2.075 2.176-2.075zm0 7.891c2.658 0 4.814 2.056 4.814 4.592 0 2.536-2.156 4.592-4.814 4.592C2.983 19.592.828 17.536.828 15c0-2.536 2.155-4.592 4.814-4.592zm0 2.516c1.202 0 2.176.93 2.176 2.076 0 1.147-.974 2.076-2.176 2.076-1.202 0-2.176-.93-2.176-2.076 0-1.147.974-2.076 2.176-2.076zm0 7.891c2.658 0 4.814 2.057 4.814 4.593S8.3 30 5.642 30C2.983 30 .828 27.944.828 25.408c0-2.536 2.155-4.593 4.814-4.593zm0 2.517c1.202 0 2.176.93 2.176 2.076s-.974 2.075-2.176 2.075c-1.202 0-2.176-.929-2.176-2.075 0-1.147.974-2.076 2.176-2.076z" fill="#F7F4F3"/></svg>
